X:1718
T:THE FAIRIES' HORNPIPE
M:2/4
L:1/16
B:O'NEILL'S 1718
N:"collected by F. O'NEILL"
Z:Transcribed by LEE WORMAN
K:G
D2|GFGA BdcB|AGAB G2Bc|dgfg edcB|cedB A2Bc
|dgfa g2fe|dedc B2AG|ABcA dcAF|G2GG G2 :|
|Bc|eggf g2fe|dedc B2AG|ABcA edcB|A2dd d2Bc
|dggf g2fe|dedc B2AG|ABcA dcAF|G2GG G2 :|
<START_ANN> %  ABC2Win Version 2.1 1/29/98 <END_ANN>
